!!!COM:	la Rue, Pierre de
!!!CDT:	~1452///-1518/11/20
!!!OPR:	Missa Tandernaken
!!!ONM:	4
!!!OTL:	Sanctus
!!!AGN:	Mass; Sanctus
!!!SCT:	Rue1030d
!!!SCA:	Rue1030d
!!!voices-OPR:	4
!!!voices:	4
**kern	**kern	**kern	**kern
*staff4	*staff3	*staff2	*staff1
*Ivox	*Ivox	*Ivox	*Ivox
*I"Bassus	*I"Tenor	*I"Contra	*I"Discantus
*I'B	*I'T	*I'C	*I'D
*>[A,B,C,D]	*>[A,B,C,D]	*>[A,B,C,D]	*>[A,B,C,D]
*>A	*>A	*>A	*>A
*clefF4	*clefGv2	*clefGv2	*clefG2
*k[]	*k[]	*k[]	*k[]
*M2/1	*M1/1	*M2/1	*M2/1
*met(C)	*met(C.)	*met(C)	*met(C)
!!primary-mensuration: met(C)
!!section: Sanctus
!!!OMD: Sanctus
=1-	=1-	=1-	=1-
*	*rscale:1/2	*	*
0r	0A	0r	1.a
.	.	.	4g/
.	.	.	4f/
=2	=2-	=2	=2
0r	1B-i\	1r	1g
.	1A/	[1f	1a
=3	=3-	=3	=3
0r	0G	2f\]	0b-i
.	.	4e\	.
.	.	4d\	.
.	.	1e	.
=4	=4	=4	=4
1r	0F	2.f\	1a
.	.	4e\	.
[1D	.	2d\	[1f
.	.	4c\	.
.	.	4B\	.
=5	=5-	=5	=5
2D\]	1F/	1A	2f/]
4C/	.	.	4e/
4BB/	.	.	4d/
1C	[y1A/	2r	1e
.	.	2c\	.
=6	=6-	=6	=6
1D	1A/]yy	2A/	1f
.	.	1d	.
1AA	1A/	.	1a
.	.	2c\	.
=7	=7	=7	=7
0BB-	0d	2d\	2g/
.	.	2D/	1f
.	.	2F/	.
.	.	2G/	4e/
.	.	.	4d/
=8	=8-	=8	=8
0AA	1c\	1A	2f/
.	.	.	2e/
.	1A/	1c	[1a
=9	=9-	=9	=9
1r	0B-i	1d	2a/]
.	.	.	4g/
.	.	.	4f/
1E	.	1e	1g
=10	=10	=10	=10
1F	0A	[0c	1a
[1A	.	.	2r
.	.	.	[2a/
=11	=11-	=11	=11
2A\]	1A/	0c]	2a/]
2G\	.	.	1a
2F\	[y1A/	.	.
4E\	.	.	4g/
4D\	.	.	4f/
=12	=12-	=12	=12
2C/	1A/]yy	1r	2e/
1D	.	.	1f
.	1A/	[1A	.
4C/	.	.	4e/
4BB/	.	.	4d/
=13	=13	=13	=13
[0AA	0c	2A/]	2e/
.	.	4G/	2A/
.	.	4F/	.
.	.	[1E	[1A
=14	=14-	=14	=14
0AA]	1c\	1E]	1A]
.	[y1A/	1E	[1a
=15	=15-	=15	=15
1D	1A/]yy	2.F/	2a/]
.	.	.	4g/
.	.	4G/	4f/
2C/	1A/	2A/	2e/
[2D\	.	2F/	[2f/
=16	=16	=16	=16
2D\]	0F	1.A	4f/]
.	.	.	4g/
4C/	.	.	4a/
4BB/	.	.	4b\
[1AA	.	.	1cc
.	.	2B\	.
=17	=17-	=17	=17
1AA]	1F/	1c	1a
[1GG	[y1G/	2B\	[1b
.	.	[2d\	.
=18	=18-	=18	=18
1GG]	1G/]yy	4d\]	2b\]
.	.	4c\	.
.	.	4B\	1g
.	.	4A/	.
1G	1G/	1B	.
.	.	.	4f/
.	.	.	4e/
=19	=19	=19	=19
1D	0A	2A/	2.f/
.	.	2d\	.
.	.	.	4d/
2r	.	2c\	2e/
2D\	.	2d\	2f/
=20	=20-	=20	=20
2E\	1G/	2B\	2g/
2C/	.	2c\	1e
1D	1F/	1A	.
.	.	.	[2d/
=21	=21-	=21	=21
0AA	0E	2r	2d/]
.	.	1A	4c#i/
.	.	.	4B/
.	.	.	1c#i
.	.	2c\	.
=22	=22	=22	=22
2r	0D	2B\	1d
2A\	.	2A/	.
2B-i\	.	1d	1r
[2A\	.	.	.
=23	=23-	=23	=23
4A\]	1r	1c	0r
4G\	.	.	.
4F\	.	.	.
4E\	.	.	.
[1D	[y1A/	1r	.
=24	=24-	=24	=24
0D]	1A/]yy	1.f	0r
.	1B-i\	.	.
.	.	2e\	.
=25	=25	=25	=25
1F	1A/	1.d	0r
[1E	[y1G/	.	.
.	.	4c#i\	.
.	.	4B\	.
=26	=26-	=26	=26
1E]	1G/]yy	1c#i	1r
[1D	[y1F/	[1d	[1a
=27	=27-	=27	=27
0D_	1F/]yy	1d]	0a]
.	1F/	[1f	.
=28	=28	=28	=28
1D]	0A	2f\]	1a
.	.	2f\	.
1r	.	2e\	1cc
.	.	[2c\	.
=29	=29-	=29	=29
0r	1A/	2c\]	1cc
.	.	4B\	.
.	.	4A/	.
.	[y1d\	2G/	2b\
.	.	2F/	[2a/
=30	=30-	=30	=30
1r	1d\]yy	1D	2a/]
.	.	.	4g/
.	.	.	4f/
[1AA	1c\	1A	1e
=31	=31	=31	=31
2AA/]	1A/	1c	1f
2AA/	.	.	.
[1GG	[y1B-i\	1d	2g/
.	.	.	4f/
.	.	.	4e/
=32	=32-	=32	=32
1GG]	1B-\]yy	2r	1d
.	.	2D/	.
[1AA	[y1A/	2F/	[1c
.	.	2E/	.
=33	=33-	=33	=33
0AA_	1A/]yy	2A/	1c]
.	.	4G/	.
.	.	4F/	.
.	1A/	2E/	1e
.	.	[2c\	.
=34	=34	=34	=34
1AA]	0A	4c\]	2f/
.	.	4B\	.
.	.	4A/	1e
.	.	4G/	.
[1D	.	2.F/	.
.	.	.	4d/
.	.	4E/	4c/
=35	=35-	=35	=35
1D]	1A/	1F	1d
1C	[y1c\	1E	1e
=36	=36-	=36	=36
1F	1c\]yy	1r	2r
.	.	.	2a/
2E\	1c\	2r	2g/
2C/	.	2E/	2e/
=37	=37	=37	=37
2D\	0A	2D/	2f/
2AA/	.	2E/	1e
1D	.	1F	.
.	.	.	[2d/
=38	=38-	=38	=38
1AA	1A/	1E	2d/]
.	.	.	2c#i/
1r	[y1F/	1D	2d/
.	.	.	2a/
=39	=39-	=39	=39
0D	1F/]yy	2r	2b-i\
.	.	4D/	1a
.	.	4E/	.
.	1F/	4F/	.
.	.	4G/	.
.	.	4A/	4g/
.	.	4B\	4f/
=40	=40	=40	=40
1C	0G	1c	2e/
.	.	.	1g
[1BB	.	1d	.
.	.	.	4f/
.	.	.	4e/
=41	=41-	=41	=41
1BB]	1G/	1B	1d
1AA	[y1A/	1c	2.c/
.	.	.	8d/L
.	.	.	8e/J
=42	=42-	=42	=42
2D\	1A/]yy	2F/	2f/
2.C/	.	2.c\	2.e/
.	1G/	.	.
4D\	.	4B\	4d/
2E\	.	2G/	4c/
.	.	.	4B/
=43	=43	=43	=43
2F\	1F/	2A/	2A/
2D\	.	2.B\	1d
2G\	[y1E/	.	.
.	.	4G/	.
2GG/	.	2B\	4c#i/
.	.	.	4B/
=44	=44-	=44	=44
1AA	1E/]yy	[0Al	1c#i
[1Dl	1r	.	[1dl
=45	=45-	=45	=45
0D]	0Dl	0A]	0d]
*	*rscale:1	*	*
!!LO:LB:i:g=z
=46||	=46||	=46||	=46||
*>B	*>B	*>B	*>B
*clefF4	*clefGv2	*clefGv2	*clefG2
*k[]	*k[]	*k[]	*k[]
*M2/1	*M2/1	*M2/1	*M2/1
*met(C)	*met(C|)	*met(C)	*met(C)
!!primary-mensuration: met(C)
!!section: Pleni sunt celi
!!!OMD: Pleni sunt celi
1.D	0r	0r	0r
2E\	.	.	.
=47	=47	=47	=47
2F\	0r	0r	0d
1G	.	.	.
4F\	.	.	.
4E\	.	.	.
=48	=48	=48	=48
2F\	0r	0r	1d
2G\	.	.	.
[1C	.	.	[1e
=49	=49	=49	=49
2C/]	0r	1r	2e/]
2D\	.	.	2f/
2E\	.	[1c	2g/
[2F\	.	.	[2a/
=50	=50	=50	=50
2F\]	0r	1c]	2a/]
4E\	.	.	4g/
4D\	.	.	4f/
2E\	.	1c	2g/
2F\	.	.	2a/
=51	=51	=51	=51
0G	0r	1.B	1d
.	.	.	2.g/
.	.	2c\	.
.	.	.	4a/
=52	=52	=52	=52
1r	0r	2d\	2b\
.	.	2e\	2cc\
2r	.	2d\	2b\
2C/	.	[2e\	[2cc\
=53	=53	=53	=53
2.E\	0r	2e\]	2cc\]
.	.	4d\	4b\
4F\	.	4c\	4a/
2D\	.	2d\	2b\
2C/	.	2e\	[2cc\
=54	=54	=54	=54
1F	0r	1A	4cc\]
.	.	.	4b\
.	.	.	1a
1E	.	1B	.
.	.	.	2g#i/
=55	=55	=55	=55
1AA	0r	1A	2a/
.	.	.	2e/
1r	.	2r	2.f/
.	.	2A/	.
.	.	.	4g/
=56	=56	=56	=56
1r	0r	2.c\	2.e/
.	.	4d\	4f/
2r	.	2B\	2g/
2AA/	.	2A/	[2a/
=57	=57	=57	=57
2.C/	0r	2.e\	2a/]
.	.	.	2g/
4D\	.	4f\	.
2BB/	.	2d\	2b\
2AA/	.	[2c\	2cc\
=58	=58	=58	=58
1C	0r	4c\]	2a/
.	.	4B\	.
.	.	1A	2cc\
1BB	.	.	2.dd\
.	.	2G#i/	.
.	.	.	4b\
=59	=59	=59	=59
0AA	0r	[0A	2cc\
.	.	.	1a
.	.	.	4g/
.	.	.	4f/
=60	=60	=60	=60
2r	0r	0A]	4e/
.	.	.	4d/
1D	.	.	1f
4C/	.	.	4e/
4BB/	.	.	4d/
=61	=61	=61	=61
2AA/	0r	1r	2c/
2C/	.	.	2e/
1BB	.	2r	1d
.	.	2G/	.
=62	=62	=62	=62
2AA/	0r	2A/	0c
2.A\	.	2.c\	.
4G\	.	4B\	.
4F\	.	4A/	.
4E\	.	4G/	.
=63	=63	=63	=63
2F\	0r	2A/	0r
4E\	.	4G/	.
4D\	.	4F/	.
2C/	.	2E/	.
2D\	.	[2F/	.
=64	=64	=64	=64
2AA/	0r	2F/]	0r
1D	.	4E/	.
.	.	4D/	.
.	.	1E	.
2C#i/	.	.	.
=65	=65	=65	=65
1D	0r	1D	2r
.	.	.	2a/
1AA	.	2r	2.cc\
.	.	2A/	.
.	.	.	4b\
=66	=66	=66	=66
0r	0r	2c\	2a/
.	.	4B\	4g/
.	.	4A/	4f/
.	.	4G/	4e/
.	.	4A/	4d/
.	.	4B\	[2g/
.	.	4c\	.
=67	=67	=67	=67
0r	0r	4B\	4g/]
.	.	4A/	4f/
.	.	1d	4e/
.	.	.	4d/
.	.	.	1e
.	.	2c#i\	.
=68	=68	=68	=68
2r	0r	0d	1d
2.D\	.	.	.
.	.	.	2r
4E\	.	.	.
4F\	.	.	[2a/
4G\	.	.	.
=69	=69	=69	=69
2A\	0r	0r	4a/]
.	.	.	4b\
2F\	.	.	4cc\
.	.	.	4a/
1G	.	.	2b\
.	.	.	2g/
=70	=70	=70	=70
0F	0r	2r	2a/
.	.	2.A/	2.f/
.	.	4B\	4g/
.	.	4c\	4a/
.	.	4A/	4f/
=71	=71	=71	=71
1r	0r	2B\	2g/
.	.	2G/	2e/
1D	.	2A/	2f/
.	.	4G/	4e/
.	.	4F/	4d/
=72	=72	=72	=72
2.AA/	0r	2A/	2.c/
.	.	4G/	.
4BB/	.	4F/	4d/
2C/	.	2E/	2e/
2D\	.	[2A/	[2f/
=73	=73	=73	=73
1F	0r	2A/]	2f/]
.	.	4G/	4e/
.	.	4F/	4d/
2C/	.	4G/	4e/
.	.	4F/	4d/
2FF/	.	2A/	2f/
=74	=74	=74	=74
2C/	0r	4G/	4e/
.	.	4F/	4d/
2D\	.	4E/	1d
.	.	4D/	.
1AA	.	1E	.
.	.	.	2c#i/
=75	=75	=75	=75
0Dl	0r	0Dl	0dl
!!LO:LB:i:g=z
=76||	=76||	=76||	=76||
*>C	*>C	*>C	*>C
*clefF4	*clefGv2	*clefGv2	*clefG2
*k[]	*k[]	*k[]	*k[]
*M3/1	*M3/1	*M3/1	*M3/1
*met(O)	*met(O)	*met(O)	*met(O)
!!section: Osanna
!!!OMD: Osanna
2.D\	0.r	0d	0.r
4E\	.	.	.
2F\	.	.	.
1G	.	.	.
.	.	1d	.
4F\	.	.	.
4E\	.	.	.
=77	=77	=77	=77
2D\	0D	1.f	0.r
1F	.	.	.
1BB-	.	1d	.
.	1D	.	.
4AA/	.	4c\	.
4GG/	.	4B\	.
=78	=78	=78	=78
0.FF	0F	2.A/	0a
.	.	4B\	.
.	.	2c\	.
.	.	2d\	.
.	1F	2c\	1a
.	.	[2A/	.
=79	=79	=79	=79
1r	0F	2A/]	1.cc
.	.	4G/	.
.	.	4F/	.
1r	.	2A/	.
.	.	2.c\	1a
1F	1F	.	.
.	.	4B\	.
.	.	2A/	4g/
.	.	.	4f/
=80	=80	=80	=80
2.C/	0c	1G	2e/
.	.	.	2c/
4D\	.	.	.
2E\	.	1G	0g
2C/	.	.	.
2.G\	1B	2r	.
.	.	[2d\	.
4F\	.	.	.
=81	=81	=81	=81
2D\	1A	2d\]	1.f
2F\	.	2c\	.
1BB-	0G	1d	.
.	.	.	4e/
.	.	.	4d/
1C	.	1c	1e
=82	=82	=82	=82
2r	0F	2r	1f
2FF/	.	2c\	.
2.BB-i/	.	2d\	1r
.	.	1f	.
4C/	.	.	.
4D\	1F	.	2r
4E\	.	.	.
[2F\	.	4e\	2c/
.	.	4d\	.
=83	=83	=83	=83
4F\]	0F	2c\	2.f/
4G\	.	.	.
2A\	.	1d	.
.	.	.	4g/
0D	.	.	4a/
.	.	.	4b-i\
.	.	4c\	1a
.	.	4B\	.
.	1F	[1A	.
.	.	.	4g/
.	.	.	4f/
=84	=84	=84	=84
0C	0c	2A/]	2e/
.	.	2G/	2.g/
.	.	2E/	.
.	.	.	4f/
.	.	2G/	4e/
.	.	.	4d/
2AA/	1c	2A/	1c
[2C/	.	4G/	.
.	.	4F/	.
=85	=85	=85	=85
4C/]	0A	4E/	2cc\
4BB/	.	4D/	.
4AA/	.	2E/	2.cc\
4GG/	.	.	.
2FF/	.	2F/	.
.	.	.	4b\
2C/	.	2E/	4a/
.	.	.	4g/
1D	1A	2D/	2.f/
.	.	[2d\	.
.	.	.	4e/
=86	=86	=86	=86
0GG	0.B	4d\]	0g
.	.	4c\	.
.	.	4B\	.
.	.	4A/	.
.	.	1G	.
1G	.	2r	2r
.	.	[2d\	2g/
=87	=87	=87	=87
2.F\	0A	4d\]	2a/
.	.	4c\	.
.	.	4d\	2.f/
4E\	.	4e\	.
2D\	.	2f\	.
.	.	.	4g/
4C/	.	4e\	4a/
4BB/	.	4d\	4b\
1AA	1A	1c	2cc\
.	.	.	2a/
=88	=88	=88	=88
0GG	0d	1B	2b\
.	.	.	2g/
.	.	2.G/	1.b
.	.	4E/	.
[1AA	1c	1E	.
.	.	.	2a/
=89	=89	=89	=89
2AA/]	1A	0e	1.a
2AA/	.	.	.
1E	0B	.	.
.	.	.	4g#i/
.	.	.	4f#i/
1E	.	1e	1g#i
=90	=90	=90	=90
2F\	[0.Al	2c\	2a/
4E\	.	2d\	4g/
4D\	.	.	4f/
2C/	.	2e\	2e/
1D	.	2.A/	1f
.	.	4B\	.
4C/	.	4c\	4e/
4BB/	.	4d\	4d/
=91	=91	=91	=91
2.AA/	0.A_	2e\	1c
.	.	1E	.
4BB/	.	.	.
2C/	.	.	2r
2D\	.	2F/	2.a/
2AA/	.	2E/	.
.	.	.	4g/
[2D\	.	[2F/	4f/
.	.	.	4e/
=92	=92	=92	=92
2D\]	0.A_	4F/]	2f/
.	.	4G/	.
4C/	.	1A	4e/
4BB/	.	.	4d/
2C/	.	.	2e/
2D\	.	4G/	1d
.	.	4F/	.
1AA	.	1E	.
.	.	.	2c#i/
=93	=93	=93	=93
0.Dl	0.A]	0.Dl	0.dl
!!LO:LB:i:g=z
!!LO:TX:rj:i:Y=40:t=fine
=94||	=94||	=94||	=94||
*>D	*>D	*>D	*>D
*clefF4	*clefGv2	*clefGv2	*clefG2
*k[]	*k[]	*k[]	*k[]
*M2/1	*M2/1	*M2/1	*M2/1
*met(C|)	*met(C|)	*met(C|)	*met(C|)
!!section: Benedictus
!!!OMD: Benedictus
1.D	0r	0r	0r
2E\	.	.	.
=95	=95	=95	=95
2F\	0r	1.A	0r
2G\	.	.	.
[1A	.	.	.
.	.	2B\	.
=96	=96	=96	=96
2A\]	0r	2c\	0r
4G\	.	2d\	.
4F\	.	.	.
2G\	.	1e	.
[2A\	.	.	.
=97	=97	=97	=97
2A\]	0r	2f\	0r
4G\	.	1e	.
4F\	.	.	.
2E\	.	.	.
[2A\	.	4d\	.
.	.	4c\	.
=98	=98	=98	=98
2A\]	0r	1B	0r
2G\	.	.	.
2A\	.	2r	.
[2F\	.	[2A/	.
=99	=99	=99	=99
2F\]	0r	4A/]	0r
.	.	4B\	.
4E\	.	4c\	.
4D\	.	4d\	.
4C/	.	4e\	.
4D\	.	4f\	.
4E\	.	[2e\	.
4F\	.	.	.
=100	=100	=100	=100
4G\	0r	2e\]	0r
4F\	.	.	.
4E\	.	2.d\	.
4D\	.	.	.
1E	.	.	.
.	.	4c#i\	.
.	.	2c#i\	.
=101	=101	=101	=101
0D	0r	1d	0r
.	.	2r	.
.	.	2d\	.
=102	=102	=102	=102
2r	0r	1f	0r
2D\	.	.	.
1F	.	1f	.
=103	=103	=103	=103
0G	0r	2e\	0r
.	.	2d\	.
.	.	4e\	.
.	.	4d\	.
.	.	4c\	.
.	.	4B\	.
=104	=104	=104	=104
2F\	0r	2A/	0r
4E\	.	2.d\	.
4D\	.	.	.
2.E\	.	.	.
.	.	4B\	.
.	.	2c\	.
4C/	.	.	.
=105	=105	=105	=105
2D\	0r	4B\	0r
.	.	4A/	.
4C/	.	1B	.
4BB/	.	.	.
2C/	.	.	.
2AA/	.	[2A/	.
=106	=106	=106	=106
1BB	0r	2A/]	0r
.	.	2G#i/	.
2r	.	2A/	.
[2AA/	.	[2c\	.
=107	=107	=107	=107
4AA/]	0r	2c\]	0r
4BB/	.	.	.
4C/	.	4B\	.
4D\	.	4A/	.
4E\	.	2.G/	.
4F\	.	.	.
[2G\	.	.	.
.	.	4A/	.
=108	=108	=108	=108
2G\]	0r	4B\	0r
.	.	4c\	.
4F\	.	1d	.
4E\	.	.	.
4F\	.	.	.
4E\	.	.	.
4D\	.	[2c\	.
4C/	.	.	.
=109	=109	=109	=109
1D	0r	2c\]	0r
.	.	2B\	.
[1C	.	1c	.
=110	=110	=110	=110
1C]	0r	2r	0r
.	.	2c\	.
2r	.	2d\	.
2F\	.	2f\	.
=111	=111	=111	=111
2G\	0r	2e\	0r
1B-	.	2.d\	.
.	.	4c\	.
[2A\	.	4B-i\	.
.	.	4A/	.
=112	=112	=112	=112
2A\]	0r	1B-i	0r
2G\	.	.	.
2A\	.	2A/	.
2F\	.	[2d\	.
=113	=113	=113	=113
2G\	0r	2d\]	0r
2B-i\	.	4c\	.
.	.	4B-i\	.
2A\	.	4c\	.
.	.	4d\	.
[2G\	.	4e\	.
.	.	4f\	.
=114	=114	=114	=114
4G\]	0r	2e\	0r
4F\	.	.	.
4E\	.	2.d\	.
4D\	.	.	.
1E	.	.	.
.	.	4c#i\	.
.	.	2c#i\	.
=115	=115	=115	=115
0Dl	0r	0dl	0r
!!LO:TX:i:Y=40:rj:t=Osanna ut supra
=||	=||	=||	=||
*-	*-	*-	*-
!!!RDF**kern: l=long note in original notation
!!!RDF**kern: i=editorial accidental
!!!ENC:	Chris Gage 05-24-2013
!!!END:	2013/08/04/
!!!EED:	Jesse Rodin
!!!EEV:	2013/08/05/
!!!ONB:	Translated from MusicXML and edited on 2013/08/05/ by Craig Sapp
!!muse2ps: T^@{OPR}^u^@{ONM}{. }@{OTL}^C^@{COM}^i2I150v85,85,85,150Q8c90
